bernoullicharts/exp_-x_alg_2__bound.svg

<?xml version="1.0" encoding="utf-8" standalone="no"?>
<!DOCTYPE svg PUBLIC "-//W3C//DTD SVG 1.1//EN"
  "http://www.w3.org/Graphics/SVG/1.1/DTD/svg11.dtd">
<!-- Created with matplotlib (https://matplotlib.org/) -->
<svg height="345.6pt" version="1.1" viewBox="0 0 460.8 345.6" width="460.8pt" xmlns="http://www.w3.org/2000/svg" xmlns:xlink="http://www.w3.org/1999/xlink">
 <defs>
  <style type="text/css">
*{stroke-linecap:butt;stroke-linejoin:round;}
  </style>
 </defs>
 <g id="figure_1">
  <g id="patch_1">
   <path d="M 0 345.6 
L 460.8 345.6 
L 460.8 0 
L 0 0 
z
" style="fill:#ffffff;"/>
  </g>
  <g id="axes_1">
   <g id="patch_2">
    <path d="M 57.6 307.584 
L 414.72 307.584 
L 414.72 41.472 
L 57.6 41.472 
z
" style="fill:#ffffff;"/>
   </g>
   <g id="matplotlib.axis_1">
    <g id="xtick_1">
     <g id="line2d_1">
      <defs>
       <path d="M 0 0 
L 0 3.5 
" id="md1e742dffa" style="stroke:#000000;stroke-width:0.8;"/>
      </defs>
      <g>
       <use style="stroke:#000000;stroke-width:0.8;" x="73.800255" xlink:href="#md1e742dffa" y="307.584"/>
      </g>
     </g>
     <g id="text_1">
      <text style="font-family:DejaVu Sans;font-size:10px;font-style:normal;font-weight:normal;text-anchor:middle;" transform="rotate(-0, 73.800255, 322.182437)" x="73.800255" y="322.182437">0.0</text>
     </g>
    </g>
    <g id="xtick_2">
     <g id="line2d_2">
      <g>
       <use style="stroke:#000000;stroke-width:0.8;" x="138.744153" xlink:href="#md1e742dffa" y="307.584"/>
      </g>
     </g>
     <g id="text_2">
      <text style="font-family:DejaVu Sans;font-size:10px;font-style:normal;font-weight:normal;text-anchor:middle;" transform="rotate(-0, 138.744153, 322.182437)" x="138.744153" y="322.182437">0.2</text>
     </g>
    </g>
    <g id="xtick_3">
     <g id="line2d_3">
      <g>
       <use style="stroke:#000000;stroke-width:0.8;" x="203.688051" xlink:href="#md1e742dffa" y="307.584"/>
      </g>
     </g>
     <g id="text_3">
      <text style="font-family:DejaVu Sans;font-size:10px;font-style:normal;font-weight:normal;text-anchor:middle;" transform="rotate(-0, 203.688051, 322.182437)" x="203.688051" y="322.182437">0.4</text>
     </g>
    </g>
    <g id="xtick_4">
     <g id="line2d_4">
      <g>
       <use style="stroke:#000000;stroke-width:0.8;" x="268.631949" xlink:href="#md1e742dffa" y="307.584"/>
      </g>
     </g>
     <g id="text_4">
      <text style="font-family:DejaVu Sans;font-size:10px;font-style:normal;font-weight:normal;text-anchor:middle;" transform="rotate(-0, 268.631949, 322.182437)" x="268.631949" y="322.182437">0.6</text>
     </g>
    </g>
    <g id="xtick_5">
     <g id="line2d_5">
      <g>
       <use style="stroke:#000000;stroke-width:0.8;" x="333.575847" xlink:href="#md1e742dffa" y="307.584"/>
      </g>
     </g>
     <g id="text_5">
      <text style="font-family:DejaVu Sans;font-size:10px;font-style:normal;font-weight:normal;text-anchor:middle;" transform="rotate(-0, 333.575847, 322.182437)" x="333.575847" y="322.182437">0.8</text>
     </g>
    </g>
    <g id="xtick_6">
     <g id="line2d_6">
      <g>
       <use style="stroke:#000000;stroke-width:0.8;" x="398.519745" xlink:href="#md1e742dffa" y="307.584"/>
      </g>
     </g>
     <g id="text_6">
      <text style="font-family:DejaVu Sans;font-size:10px;font-style:normal;font-weight:normal;text-anchor:middle;" transform="rotate(-0, 398.519745, 322.182437)" x="398.519745" y="322.182437">1.0</text>
     </g>
    </g>
    <g id="text_7">
     <text style="font-family:DejaVu Sans;font-size:10px;font-style:normal;font-weight:normal;text-anchor:middle;" transform="rotate(-0, 236.16, 335.860562)" x="236.16" y="335.860562">Input Coin's Heads Probability (λ)</text>
    </g>
   </g>
   <g id="matplotlib.axis_2">
    <g id="ytick_1">
     <g id="line2d_7">
      <defs>
       <path d="M 0 0 
L -3.5 0 
" id="maa56d623db" style="stroke:#000000;stroke-width:0.8;"/>
      </defs>
      <g>
       <use style="stroke:#000000;stroke-width:0.8;" x="57.6" xlink:href="#maa56d623db" y="295.488145"/>
      </g>
     </g>
     <g id="text_8">
      <text style="font-family:DejaVu Sans;font-size:10px;font-style:normal;font-weight:normal;text-anchor:end;" transform="rotate(-0, 50.6, 299.287364)" x="50.6" y="299.287364">0</text>
     </g>
    </g>
    <g id="ytick_2">
     <g id="line2d_8">
      <g>
       <use style="stroke:#000000;stroke-width:0.8;" x="57.6" xlink:href="#maa56d623db" y="245.549012"/>
      </g>
     </g>
     <g id="text_9">
      <text style="font-family:DejaVu Sans;font-size:10px;font-style:normal;font-weight:normal;text-anchor:end;" transform="rotate(-0, 50.6, 249.34823)" x="50.6" y="249.34823">20</text>
     </g>
    </g>
    <g id="ytick_3">
     <g id="line2d_9">
      <g>
       <use style="stroke:#000000;stroke-width:0.8;" x="57.6" xlink:href="#maa56d623db" y="195.609878"/>
      </g>
     </g>
     <g id="text_10">
      <text style="font-family:DejaVu Sans;font-size:10px;font-style:normal;font-weight:normal;text-anchor:end;" transform="rotate(-0, 50.6, 199.409097)" x="50.6" y="199.409097">40</text>
     </g>
    </g>
    <g id="ytick_4">
     <g id="line2d_10">
      <g>
       <use style="stroke:#000000;stroke-width:0.8;" x="57.6" xlink:href="#maa56d623db" y="145.670744"/>
      </g>
     </g>
     <g id="text_11">
      <text style="font-family:DejaVu Sans;font-size:10px;font-style:normal;font-weight:normal;text-anchor:end;" transform="rotate(-0, 50.6, 149.469963)" x="50.6" y="149.469963">60</text>
     </g>
    </g>
    <g id="ytick_5">
     <g id="line2d_11">
      <g>
       <use style="stroke:#000000;stroke-width:0.8;" x="57.6" xlink:href="#maa56d623db" y="95.731611"/>
      </g>
     </g>
     <g id="text_12">
      <text style="font-family:DejaVu Sans;font-size:10px;font-style:normal;font-weight:normal;text-anchor:end;" transform="rotate(-0, 50.6, 99.530829)" x="50.6" y="99.530829">80</text>
     </g>
    </g>
    <g id="ytick_6">
     <g id="line2d_12">
      <g>
       <use style="stroke:#000000;stroke-width:0.8;" x="57.6" xlink:href="#maa56d623db" y="45.792477"/>
      </g>
     </g>
     <g id="text_13">
      <text style="font-family:DejaVu Sans;font-size:10px;font-style:normal;font-weight:normal;text-anchor:end;" transform="rotate(-0, 50.6, 49.591696)" x="50.6" y="49.591696">100</text>
     </g>
    </g>
    <g id="text_14">
     <text style="font-family:DejaVu Sans;font-size:10px;font-style:normal;font-weight:normal;text-anchor:middle;" transform="rotate(-90, 25.432813, 174.528)" x="25.432813" y="174.528">Coin Flips Needed</text>
    </g>
   </g>
   <g id="line2d_13">
    <path clip-path="url(#pf76528cf2e)" d="M 73.832727 292.991563 
L 77.112066 293.029237 
L 80.391405 293.066615 
L 83.670744 293.103699 
L 86.950083 293.140489 
L 90.229421 293.176987 
L 93.50876 293.213195 
L 96.788099 293.249113 
L 100.067438 293.284743 
L 103.346777 293.320087 
L 106.626116 293.355145 
L 109.905455 293.389919 
L 113.184793 293.424409 
L 116.464132 293.458619 
L 119.743471 293.492548 
L 123.02281 293.526197 
L 126.302149 293.55957 
L 129.581488 293.592665 
L 132.860826 293.625486 
L 136.140165 293.658033 
L 139.419504 293.690307 
L 142.698843 293.72231 
L 145.978182 293.754043 
L 149.257521 293.785507 
L 152.53686 293.816704 
L 155.816198 293.847635 
L 159.095537 293.878301 
L 162.374876 293.908703 
L 165.654215 293.938843 
L 168.933554 293.968723 
L 172.212893 293.998343 
L 175.492231 294.027704 
L 178.77157 294.056808 
L 182.050909 294.085657 
L 185.330248 294.114251 
L 188.609587 294.142592 
L 191.888926 294.170682 
L 195.168264 294.19852 
L 198.447603 294.22611 
L 201.726942 294.253451 
L 205.006281 294.280545 
L 208.28562 294.307395 
L 211.564959 294.334 
L 214.844298 294.360362 
L 218.123636 294.386482 
L 221.402975 294.412363 
L 224.682314 294.438004 
L 227.961653 294.463407 
L 231.240992 294.488574 
L 234.520331 294.513506 
L 237.799669 294.538204 
L 241.079008 294.562669 
L 244.358347 294.586903 
L 247.637686 294.610907 
L 250.917025 294.634682 
L 254.196364 294.65823 
L 257.475702 294.681551 
L 260.755041 294.704647 
L 264.03438 294.72752 
L 267.313719 294.75017 
L 270.593058 294.772599 
L 273.872397 294.794807 
L 277.151736 294.816797 
L 280.431074 294.83857 
L 283.710413 294.860127 
L 286.989752 294.881468 
L 290.269091 294.902596 
L 293.54843 294.923511 
L 296.827769 294.944216 
L 300.107107 294.96471 
L 303.386446 294.984996 
L 306.665785 295.005074 
L 309.945124 295.024946 
L 313.224463 295.044612 
L 316.503802 295.064076 
L 319.78314 295.083336 
L 323.062479 295.102396 
L 326.341818 295.121255 
L 329.621157 295.139915 
L 332.900496 295.158378 
L 336.179835 295.176645 
L 339.459174 295.194716 
L 342.738512 295.212593 
L 346.017851 295.230278 
L 349.29719 295.247771 
L 352.576529 295.265074 
L 355.855868 295.282188 
L 359.135207 295.299113 
L 362.414545 295.315852 
L 365.693884 295.332406 
L 368.973223 295.348775 
L 372.252562 295.364961 
L 375.531901 295.380966 
L 378.81124 295.396789 
L 382.090579 295.412433 
L 385.369917 295.427898 
L 388.649256 295.443187 
L 391.928595 295.458299 
L 395.207934 295.473236 
L 398.487273 295.488 
" style="fill:none;stroke:#1f77b4;stroke-linecap:square;stroke-width:1.5;"/>
   </g>
   <g id="line2d_14">
    <path clip-path="url(#pf76528cf2e)" d="M 73.832727 292.991189 
L 77.112066 292.981201 
L 80.391405 292.926268 
L 83.670744 292.956231 
L 86.950083 292.871335 
L 90.229421 292.861347 
L 93.50876 292.841371 
L 96.788099 292.816402 
L 100.067438 292.851359 
L 103.346777 292.731505 
L 106.626116 292.676572 
L 109.905455 292.651603 
L 113.184793 292.626633 
L 116.464132 292.591676 
L 119.743471 292.611651 
L 123.02281 292.496791 
L 126.302149 292.501785 
L 129.581488 292.486803 
L 132.860826 292.501785 
L 136.140165 292.391919 
L 139.419504 292.322004 
L 142.698843 292.356962 
L 145.978182 292.167193 
L 149.257521 292.292041 
L 152.53686 292.157205 
L 155.816198 292.197156 
L 159.095537 292.137229 
L 162.374876 291.97243 
L 165.654215 291.947461 
L 168.933554 291.977424 
L 172.212893 292.027363 
L 175.492231 291.807631 
L 178.77157 291.76768 
L 182.050909 291.757692 
L 185.330248 291.667802 
L 188.609587 291.433088 
L 191.888926 291.517984 
L 195.168264 291.53796 
L 198.447603 291.443075 
L 201.726942 291.263295 
L 205.006281 291.088508 
L 208.28562 291.433088 
L 211.564959 290.918715 
L 214.844298 291.143441 
L 218.123636 290.913721 
L 221.402975 291.038569 
L 224.682314 290.918715 
L 227.961653 290.893745 
L 231.240992 290.639055 
L 234.520331 290.748922 
L 237.799669 290.684001 
L 241.079008 290.309457 
L 244.358347 290.189603 
L 247.637686 290.079737 
L 250.917025 290.109701 
L 254.196364 290.104707 
L 257.475702 289.735157 
L 260.755041 289.430528 
L 264.03438 289.590334 
L 267.313719 289.35562 
L 270.593058 289.255741 
L 273.872397 289.120906 
L 277.151736 288.656472 
L 280.431074 288.691429 
L 283.710413 288.636496 
L 286.989752 288.097154 
L 290.269091 287.897397 
L 293.54843 287.902391 
L 296.827769 288.017251 
L 300.107107 287.038444 
L 303.386446 287.208237 
L 306.665785 286.054643 
L 309.945124 286.603973 
L 313.224463 286.194473 
L 316.503802 286.683876 
L 319.78314 284.970964 
L 323.062479 284.611402 
L 326.341818 284.631378 
L 329.621157 283.617613 
L 332.900496 283.352936 
L 336.179835 282.409086 
L 339.459174 281.679975 
L 342.738512 281.440267 
L 346.017851 279.667428 
L 349.29719 278.753542 
L 352.576529 278.728572 
L 355.855868 276.810909 
L 359.135207 274.563648 
L 362.414545 274.254026 
L 365.693884 269.150246 
L 368.973223 269.594705 
L 372.252562 261.324784 
L 375.531901 258.88276 
L 378.81124 258.268509 
L 382.090579 246.787502 
L 385.369917 232.240233 
L 388.649256 213.433155 
L 391.928595 169.996096 
L 395.207934 53.568 
" style="fill:none;stroke:#ff7f0e;stroke-linecap:square;stroke-width:1.5;"/>
   </g>
   <g id="patch_3">
    <path d="M 57.6 307.584 
L 57.6 41.472 
" style="fill:none;stroke:#000000;stroke-linecap:square;stroke-linejoin:miter;stroke-width:0.8;"/>
   </g>
   <g id="patch_4">
    <path d="M 414.72 307.584 
L 414.72 41.472 
" style="fill:none;stroke:#000000;stroke-linecap:square;stroke-linejoin:miter;stroke-width:0.8;"/>
   </g>
   <g id="patch_5">
    <path d="M 57.6 307.584 
L 414.72 307.584 
" style="fill:none;stroke:#000000;stroke-linecap:square;stroke-linejoin:miter;stroke-width:0.8;"/>
   </g>
   <g id="patch_6">
    <path d="M 57.6 41.472 
L 414.72 41.472 
" style="fill:none;stroke:#000000;stroke-linecap:square;stroke-linejoin:miter;stroke-width:0.8;"/>
   </g>
   <g id="text_15">
    <text style="font-family:DejaVu Sans;font-size:12px;font-style:normal;font-weight:normal;text-anchor:middle;" transform="rotate(-0, 236.16, 35.472)" x="236.16" y="35.472">Coin Flips for exp(-x)</text>
   </g>
   <g id="legend_1">
    <g id="patch_7">
     <path d="M 64.6 78.82825 
L 267.007812 78.82825 
Q 269.007812 78.82825 269.007812 76.82825 
L 269.007812 48.472 
Q 269.007812 46.472 267.007812 46.472 
L 64.6 46.472 
Q 62.6 46.472 62.6 48.472 
L 62.6 76.82825 
Q 62.6 78.82825 64.6 78.82825 
z
" style="fill:#ffffff;opacity:0.8;stroke:#cccccc;stroke-linejoin:miter;"/>
    </g>
    <g id="line2d_15">
     <path d="M 66.6 54.570437 
L 86.6 54.570437 
" style="fill:none;stroke:#1f77b4;stroke-linecap:square;stroke-width:1.5;"/>
    </g>
    <g id="line2d_16"/>
    <g id="text_16">
     <text style="font-family:DejaVu Sans;font-size:10px;font-style:normal;font-weight:normal;text-anchor:start;" transform="rotate(-0, 94.6, 58.070437)" x="94.6" y="58.070437">Coin Flip Lower Bound</text>
    </g>
    <g id="line2d_17">
     <path d="M 66.6 69.248562 
L 86.6 69.248562 
" style="fill:none;stroke:#ff7f0e;stroke-linecap:square;stroke-width:1.5;"/>
    </g>
    <g id="line2d_18"/>
    <g id="text_17">
     <text style="font-family:DejaVu Sans;font-size:10px;font-style:normal;font-weight:normal;text-anchor:start;" transform="rotate(-0, 94.6, 72.748562)" x="94.6" y="72.748562">Avg. Coins Flipped exp(-x) (Alg. 2)</text>
    </g>
   </g>
  </g>
 </g>
 <defs>
  <clipPath id="pf76528cf2e">
   <rect height="266.112" width="357.12" x="57.6" y="41.472"/>
  </clipPath>
 </defs>
</svg>

<svg height="460.8" viewBox="0 0 460.8 345.6" width="614.4" xmlns="http://www.w3.org/2000/svg" xmlns:xlink="http://www.w3.org/1999/xlink"><defs><style>*{stroke-linecap:butt;stroke-linejoin:round}</style></defs><g id="figure_1"><path d="M0 345.6h460.8V0H0z" fill="#fff" id="patch_1"/><g id="axes_1"><path d="M57.6 307.584h357.12V41.472H57.6z" fill="#fff" id="patch_2"/><g id="matplotlib.axis_1"><g id="xtick_1"><g id="line2d_1"><defs><path d="M0 0v3.5" id="md1e742dffa" stroke="#000" stroke-width=".8"/></defs><use x="73.8" xlink:href="#md1e742dffa" y="307.584" stroke="#000" stroke-width=".8"/></g><text x="73.8" y="322.182" font-family="DejaVu Sans" font-size="10" font-weight="400" text-anchor="middle" id="text_1">0.0</text></g><g id="xtick_2"><use x="138.744" xlink:href="#md1e742dffa" y="307.584" stroke="#000" stroke-width=".8" id="line2d_2"/><text x="138.744" y="322.182" font-family="DejaVu Sans" font-size="10" font-weight="400" text-anchor="middle" id="text_2">0.2</text></g><g id="xtick_3"><use x="203.688" xlink:href="#md1e742dffa" y="307.584" stroke="#000" stroke-width=".8" id="line2d_3"/><text x="203.688" y="322.182" font-family="DejaVu Sans" font-size="10" font-weight="400" text-anchor="middle" id="text_3">0.4</text></g><g id="xtick_4"><use x="268.632" xlink:href="#md1e742dffa" y="307.584" stroke="#000" stroke-width=".8" id="line2d_4"/><text x="268.632" y="322.182" font-family="DejaVu Sans" font-size="10" font-weight="400" text-anchor="middle" id="text_4">0.6</text></g><g id="xtick_5"><use x="333.576" xlink:href="#md1e742dffa" y="307.584" stroke="#000" stroke-width=".8" id="line2d_5"/><text x="333.576" y="322.182" font-family="DejaVu Sans" font-size="10" font-weight="400" text-anchor="middle" id="text_5">0.8</text></g><g id="xtick_6"><use x="398.52" xlink:href="#md1e742dffa" y="307.584" stroke="#000" stroke-width=".8" id="line2d_6"/><text x="398.52" y="322.182" font-family="DejaVu Sans" font-size="10" font-weight="400" text-anchor="middle" id="text_6">1.0</text></g><text x="236.16" y="335.861" font-family="DejaVu Sans" font-size="10" font-weight="400" text-anchor="middle" id="text_7">Input Coin&apos;s Heads Probability (λ)</text></g><g id="matplotlib.axis_2"><g id="ytick_1"><g id="line2d_7"><defs><path d="M0 0h-3.5" id="maa56d623db" stroke="#000" stroke-width=".8"/></defs><use x="57.6" xlink:href="#maa56d623db" y="295.488" stroke="#000" stroke-width=".8"/></g><text x="50.6" y="299.287" font-family="DejaVu Sans" font-size="10" font-weight="400" text-anchor="end" id="text_8">0</text></g><g id="ytick_2"><use x="57.6" xlink:href="#maa56d623db" y="245.549" stroke="#000" stroke-width=".8" id="line2d_8"/><text x="50.6" y="249.348" font-family="DejaVu Sans" font-size="10" font-weight="400" text-anchor="end" id="text_9">20</text></g><g id="ytick_3"><use x="57.6" xlink:href="#maa56d623db" y="195.61" stroke="#000" stroke-width=".8" id="line2d_9"/><text x="50.6" y="199.409" font-family="DejaVu Sans" font-size="10" font-weight="400" text-anchor="end" id="text_10">40</text></g><g id="ytick_4"><use x="57.6" xlink:href="#maa56d623db" y="145.671" stroke="#000" stroke-width=".8" id="line2d_10"/><text x="50.6" y="149.47" font-family="DejaVu Sans" font-size="10" font-weight="400" text-anchor="end" id="text_11">60</text></g><g id="ytick_5"><use x="57.6" xlink:href="#maa56d623db" y="95.732" stroke="#000" stroke-width=".8" id="line2d_11"/><text x="50.6" y="99.531" font-family="DejaVu Sans" font-size="10" font-weight="400" text-anchor="end" id="text_12">80</text></g><g id="ytick_6"><use x="57.6" xlink:href="#maa56d623db" y="45.792" stroke="#000" stroke-width=".8" id="line2d_12"/><text x="50.6" y="49.592" font-family="DejaVu Sans" font-size="10" font-weight="400" text-anchor="end" id="text_13">100</text></g><text transform="rotate(-90 25.433 174.528)" x="25.433" y="174.528" font-family="DejaVu Sans" font-size="10" font-weight="400" text-anchor="middle" id="text_14">Coin Flips Needed</text></g><path clip-path="url(#pf76528cf2e)" d="M73.833 292.992l3.28.037 3.278.038 3.28.037 3.28.036 3.278.037 3.28.036 3.28.036 3.278.036 3.28.035 3.28.035 3.278.035 3.28.034 3.28.035 3.278.034 3.28.033 3.28.034 3.278.033 3.28.032 3.28.033 3.279.032 3.279.032 3.28.032 3.279.032 3.279.03 3.28.032 3.279.03 3.279.03 3.28.03 3.279.03 3.279.03 3.28.03 3.279.029 3.279.029 3.28.028 3.279.029 3.279.028 3.28.028 3.279.027 3.279.027 3.28.028 3.279.026 3.279.027 3.28.026 3.279.026 3.279.026 3.28.026 3.279.025 3.279.026 3.28.025 3.279.024 3.279.025 3.28.024 3.279.024 3.279.024 3.28.023 3.279.024 3.279.023 3.28.023 3.279.022 3.28.023 3.278.022 3.28.022 3.28.022 3.278.021 3.28.021 3.28.022 3.278.02 3.28.021 3.28.02 3.278.021 3.28.02 3.28.02 3.278.02 3.28.02 3.28.018 3.278.02 3.28.018 3.28.019 3.278.018 3.28.019 3.28.018 3.279.018 3.279.017 3.28.018 3.279.017 3.279.017 3.28.017 3.279.017 3.279.016 3.28.017 3.279.016 3.279.016 3.28.016 3.279.015 3.279.016 3.28.015 3.279.015 3.279.015 3.28.015" fill="none" stroke="#1f77b4" stroke-linecap="square" stroke-width="1.5" id="line2d_13"/><path clip-path="url(#pf76528cf2e)" d="M73.833 292.991l3.28-.01 3.278-.055 3.28.03 3.28-.085 3.278-.01 3.28-.02 3.28-.025 3.278.035 3.28-.12 3.28-.054 3.278-.025 3.28-.025 3.28-.035 3.278.02 3.28-.115 3.28.005 3.278-.015 3.28.015 3.28-.11 3.279-.07 3.279.035 3.28-.19 3.279.125 3.279-.135 3.28.04 3.279-.06 3.279-.165 3.28-.025 3.279.03 3.279.05 3.28-.22 3.279-.04 3.279-.01 3.28-.09 3.279-.234 3.279.085 3.28.02 3.279-.095 3.279-.18 3.28-.174 3.279.344 3.279-.514 3.28.224 3.279-.23 3.279.126 3.28-.12 3.279-.025 3.279-.255 3.28.11 3.279-.065 3.279-.375 3.28-.12 3.279-.11 3.279.03 3.28-.004 3.279-.37 3.279-.304 3.28.16 3.279-.235 3.28-.1 3.278-.135 3.28-.465 3.28.035 3.278-.055 3.28-.539 3.28-.2 3.278.005 3.28.115 3.28-.979 3.278.17 3.28-1.153 3.28.549 3.278-.41 3.28.49 3.28-1.713 3.278-.36 3.28.02 3.28-1.013 3.278-.265 3.28-.944 3.28-.729 3.279-.24 3.279-1.773 3.28-.913 3.279-.025 3.279-1.918 3.28-2.247 3.279-.31 3.279-5.104 3.28.445 3.279-8.27 3.279-2.442 3.28-.614 3.279-11.481 3.279-14.548 3.28-18.807 3.279-43.437 3.279-116.428" fill="none" stroke="#ff7f0e" stroke-linecap="square" stroke-width="1.5" id="line2d_14"/><path d="M57.6 307.584V41.472" fill="none" stroke="#000" stroke-linecap="square" stroke-width=".8" id="patch_3"/><path d="M414.72 307.584V41.472" fill="none" stroke="#000" stroke-linecap="square" stroke-width=".8" id="patch_4"/><path d="M57.6 307.584h357.12" fill="none" stroke="#000" stroke-linecap="square" stroke-width=".8" id="patch_5"/><path d="M57.6 41.472h357.12" fill="none" stroke="#000" stroke-linecap="square" stroke-width=".8" id="patch_6"/><text x="236.16" y="35.472" font-family="DejaVu Sans" font-size="12" font-weight="400" text-anchor="middle" id="text_15">Coin Flips for exp(-x)</text><g id="legend_1"><path d="M64.6 78.828h202.408q2 0 2-2V48.472q0-2-2-2H64.6q-2 0-2 2v28.356q0 2 2 2z" fill="#fff" opacity=".8" stroke="#ccc" id="patch_7"/><path d="M66.6 54.57h20" fill="none" stroke="#1f77b4" stroke-linecap="square" stroke-width="1.5" id="line2d_15"/><text x="94.6" y="58.07" font-family="DejaVu Sans" font-size="10" font-weight="400" id="text_16">Coin Flip Lower Bound</text><path d="M66.6 69.249h20" fill="none" stroke="#ff7f0e" stroke-linecap="square" stroke-width="1.5" id="line2d_17"/><text x="94.6" y="72.749" font-family="DejaVu Sans" font-size="10" font-weight="400" id="text_17">Avg. Coins Flipped exp(-x) (Alg. 2)</text></g></g></g><defs><clipPath id="pf76528cf2e"><path d="M57.6 41.472h357.12v266.112H57.6z"/></clipPath></defs></svg>
